svg/fluentui-system-icons/ic_fluent_text_bullet_list_square_search_20_filled.svg

<svg width="20" height="20" viewBox="0 0 20 20" fill="none" xmlns="http://www.w3.org/2000/svg">
<path d="M3 5.75C3 4.23122 4.23122 3 5.75 3H14.25C15.7688 3 17 4.23122 17 5.75V14.25C17 15.7688 15.7688 17 14.25 17H10.1213L8.56144 15.4401C8.77418 14.9956 8.91608 14.5107 8.97254 14H13.5C13.7761 14 14 13.7761 14 13.5C14 13.2239 13.7761 13 13.5 13H8.97254C8.72381 10.75 6.81628 9 4.5 9C3.97405 9 3.46917 9.09023 3 9.25606V5.75ZM6.75 8C7.16421 8 7.5 7.66421 7.5 7.25C7.5 6.83579 7.16421 6.5 6.75 6.5C6.33579 6.5 6 6.83579 6 7.25C6 7.66421 6.33579 8 6.75 8ZM9 7.5C9 7.77614 9.22386 8 9.5 8H13.5C13.7761 8 14 7.77614 14 7.5C14 7.22386 13.7761 7 13.5 7H9.5C9.22386 7 9 7.22386 9 7.5ZM9.5 10C9.22386 10 9 10.2239 9 10.5C9 10.7761 9.22386 11 9.5 11H13.5C13.7761 11 14 10.7761 14 10.5C14 10.2239 13.7761 10 13.5 10H9.5ZM4.5 17C5.2862 17 6.01185 16.7408 6.59615 16.3031L9.14644 18.8535C9.3417 19.0488 9.65828 19.0488 9.85355 18.8535C10.0488 18.6583 10.0488 18.3417 9.85356 18.1464L7.30324 15.596C7.74082 15.0117 8 14.2861 8 13.5C8 11.567 6.433 10 4.5 10C2.567 10 1 11.567 1 13.5C1 15.433 2.567 17 4.5 17ZM4.5 16C3.11929 16 2 14.8807 2 13.5C2 12.1193 3.11929 11 4.5 11C5.88071 11 7 12.1193 7 13.5C7 14.8807 5.88071 16 4.5 16Z" fill="#212121"/>
</svg>

<svg xmlns="http://www.w3.org/2000/svg" width="20" height="20"><path d="M3 5.75A2.75 2.75 0 0 1 5.75 3h8.5A2.75 2.75 0 0 1 17 5.75v8.5A2.75 2.75 0 0 1 14.25 17h-4.129l-1.56-1.56A4.47 4.47 0 0 0 8.973 14H13.5a.5.5 0 0 0 0-1H8.973A4.5 4.5 0 0 0 3 9.256V5.75ZM6.75 8a.75.75 0 1 0 0-1.5.75.75 0 0 0 0 1.5ZM9 7.5a.5.5 0 0 0 .5.5h4a.5.5 0 0 0 0-1h-4a.5.5 0 0 0-.5.5Zm.5 2.5a.5.5 0 0 0 0 1h4a.5.5 0 0 0 0-1h-4Zm-5 7c.786 0 1.512-.26 2.096-.697l2.55 2.55a.5.5 0 1 0 .708-.707l-2.55-2.55A3.5 3.5 0 1 0 4.5 17Zm0-1a2.5 2.5 0 1 1 0-5 2.5 2.5 0 0 1 0 5Z"/></svg>
